X: 685
P: Longways for as many as will
M: C|
L: 1/8
K: C
V: 1
d2 |\
|: ef |\
g4 f4 | e2c2 c2e2 | d4 B4 | c2 A4 dc |\
V: 2 clef=bass middle=d
z2 |\
g4 f4 | e4 c4 | g4 G4 | d4 D4 |\
g4 f4 | e4 c4 | g4 G4 | c6 :|
|: z2 |\
g4 G4 | c8 | g4 G4 | d8 |\
g4 f4 | e4 c4 | g4 G4 | c6 :|

